images/class_icons/spellweaver.svg

<svg height="400" viewBox="0 0 400 400" width="400" xmlns="http://www.w3.org/2000/svg"><path d="m252.646 1.767c0 .193.245 1.649.544 3.236 8.333 44.155-.643 90.969-24.477 127.656-.458.705-1.232 1.9-1.721 2.656-2.412 3.733-8.982 12.444-9.385 12.444-.051 0-.355-.713-.676-1.584-5.687-15.432-9.728-24.097-16.427-35.221-9.985-16.582-20.565-29.571-36.5-44.811-17.084-16.339-42.484-32.967-65.234-42.706-2.763-1.183-2.696-1.031.522 1.186 1.957 1.348 2.502 1.743 6 4.35 4.549 3.391 9.202 7.188 11.998 9.791 8.126 7.562 13.545 13.288 19.137 20.218 17.865 22.139 30.418 48.449 36.341 76.17.943 4.413 2.685 15.426 2.473 15.638-.043.043-2.164-.81-4.714-1.895-6.786-2.888-10.557-4.366-16.567-6.494-16.114-5.707-36.367-9.876-54.533-11.224-5.56-.412-28.848-.274-33.637.201-22.763 2.254-41.034 6.706-61.117 14.893-4.779 1.948-4.952 2.124-1.414 1.434 21.897-4.271 43.4-4.479 65.093-.63 22.015 3.907 43.785 12.272 62.737 24.106 4.697 2.933 10.498 7.059 14.893 10.594 1.756 1.413 1.757 1.338-.029 1.925-3.403 1.119-13.49 5.11-17.001 6.726-23.555 10.845-42.357 24.557-62.96 45.913-2.104 2.182-6.487 7.144-8.686 9.836-13.857 16.958-23.424 32.208-32.73 52.174-3.134 6.722-3.176 7.19-.262 2.898 15.438-22.737 37.161-42.171 62.171-55.621 8.567-4.607 17.786-8.662 26.491-11.651.927-.318 1.958-.676 2.292-.796 2.769-.993 9.139-2.819 13.886-3.98 6.727-1.646 17.013-3.554 20.56-3.814.766-.056.735.074-.94 4.005-10.562 24.784-15.654 44.935-17.937 70.981-.573 6.544-.614 25.529-.068 31.749 2.159 24.594 6.435 42.673 15.153 64.067 1.219 2.99 1.832 4.081 1.632 2.903-.034-.204-.305-1.736-.602-3.404-2.658-14.958-3.491-26.941-2.834-40.782 1.527-32.169 11.608-62.879 29.43-89.653 3.574-5.368 8.821-12.176 9.127-11.841.125.136.599 1.356 2.012 5.175 10.703 28.929 26.881 52.939 51.376 76.246 16.806 15.99 40.48 31.697 62.825 41.681 6.018 2.689 6.036 2.657.606-1.124-37.069-25.814-63.219-66.026-72.411-111.35-.83-4.093-2.075-12.044-2.075-13.252 0-.634.069-.615 4.133 1.126 24.801 10.63 48.278 16.441 72.78 18.016 4.531.291 27.219.244 30.334-.063 22.709-2.238 37.614-5.492 56.218-12.27 5.789-2.109 12.756-5.17 10.55-4.635-5.771 1.399-18.77 3.159-26.61 3.603-3.882.22-19.031.091-22.093-.188-16.204-1.478-26.983-3.555-40.922-7.886-9.261-2.877-20.817-7.734-29.25-12.294-6.304-3.409-11.789-6.682-15.763-9.408-5.57-3.821-11.869-8.58-11.646-8.8.06-.059 1.14-.471 2.401-.915 19.072-6.715 37.369-16.555 52.374-28.166 10.558-8.17 18.688-15.578 27.554-25.104 16.76-18.008 31.969-41.234 41.978-64.105 1.416-3.236 1.313-3.437-.438-.86-4.041 5.945-7.962 11.081-12.389 16.229-1.754 2.04-1.917 2.222-4.359 4.862-.895.969-1.861 2.024-2.146 2.345-.889 1-7.417 7.231-9.682 9.242-8.405 7.459-17.876 14.383-27.102 19.813-1.112.655-2.447 1.444-2.966 1.755-.837.501-2.358 1.331-5.932 3.238-18.166 9.69-40.011 16.66-60.013 19.147-2.634.327-2.511.529-1.313-2.162 10.135-22.766 15.915-44.461 18.245-68.486.725-7.473.72-7.357.782-18.335.077-13.727-.061-17.055-1.049-25.397-1.574-13.286-3.917-24.921-7.362-36.551-2.717-9.172-8.673-24.804-8.676-22.77m-58.173 132.649c2.847 3.083 5.367 6.344 7.937 10.273 7.827 11.966 11.184 23.542 10.966 37.82-.057 3.709-.037 4.866.083 4.795.087-.051.461-.345.832-.654 1.143-.953 2.719-2.105 5.527-4.041 5.641-3.888 8.167-5.998 10.882-9.09 5.022-5.72 8.48-12.65 10.332-20.705.222-.964.499-2.147.615-2.629l.213-.876-.067 1.955c-.38 11.075-4.392 24.401-10.363 34.429-2.775 4.66-4.663 6.999-10.331 12.799-1.001 1.024-1.82 1.934-1.82 2.021 0 .969 12.532 2.192 18.992 1.854 10.153-.531 20.873-3.746 28.733-8.617 1.337-.829 1.376-.801.309.221-9.09 8.709-22.472 16.048-33.735 18.501-5.076 1.106-8.548 1.405-15.277 1.316-2.688-.035-4.887-.027-4.887.017 0 .045.459.658 1.019 1.362.561.704 1.873 2.548 2.915 4.096 1.043 1.548 2.383 3.489 2.978 4.312 6.721 9.296 15.869 15.206 27.669 17.873 1.334.302 2.79.637 3.235.745l.809.195-1.348-.07c-14.065-.729-27.819-5.07-38.288-12.087-3.433-2.3-4.958-3.569-9.313-7.748-3.176-3.047-3.036-2.983-3.376-1.565-1.247 5.213-1.708 12.606-1.266 20.336.456 7.977 3.811 18.429 8.289 25.817.426.705.803 1.326.836 1.382.209.352-.248-.095-1.519-1.483-13.561-14.812-20.325-32.503-19.204-50.227.093-1.469.136-2.703.097-2.743-.039-.039-1.365.835-2.946 1.943-1.582 1.107-3.755 2.611-4.83 3.342-11.493 7.807-17.211 16.519-20.425 31.117-.795 3.611-.45-2.228.48-8.137 2.467-15.658 8.57-28.157 18.839-38.579 1.728-1.754 3.094-3.217 3.034-3.252-.174-.1-1.997-.472-3.816-.778-15.403-2.592-30.15-.24-42.467 6.775-.852.485-1.793 1.019-2.089 1.187l-.54.304.54-.527c6.015-5.882 14.687-11.7 22.177-14.877 10.297-4.368 18.911-5.872 29.895-5.219 2.092.124 2.086.129 1.206-1.069-1.226-1.668-2.656-3.696-3.932-5.576-3.362-4.954-4.691-6.635-7.032-8.901-6.92-6.699-14.249-10.395-25.125-12.675l-1.82-.381 1.146.063c20.702 1.148 37.566 8.489 49.652 21.614.644.699 1.203 1.239 1.243 1.198.327-.326 1.311-5.708 1.561-8.535.205-2.318.208-11.979.005-14.361-.611-7.148-3.722-16.855-7.567-23.609-.69-1.213-1.283-2.266-1.318-2.34-.067-.146.39.321 1.655 1.689" fill-rule="evenodd"/></svg>

<svg id="svg" xmlns="http://www.w3.org/2000/svg" xmlns:xlink="http://www.w3.org/1999/xlink" width="400" height="400" viewBox="0, 0, 400,400"><g id="svgg"><path id="path0" d="M252.646 1.767 C 252.646 1.960,252.891 3.416,253.190 5.003 C 261.523 49.158,252.547 95.972,228.713 132.659 C 228.255 133.364,227.481 134.559,226.992 135.315 C 224.580 139.048,218.010 147.759,217.607 147.759 C 217.556 147.759,217.252 147.046,216.931 146.175 C 211.244 130.743,207.203 122.078,200.504 110.954 C 190.519 94.372,179.939 81.383,164.004 66.143 C 146.920 49.804,121.520 33.176,98.770 23.437 C 96.007 22.254,96.074 22.406,99.292 24.623 C 101.249 25.971,101.794 26.366,105.292 28.973 C 109.841 32.364,114.494 36.161,117.290 38.764 C 125.416 46.326,130.835 52.052,136.427 58.982 C 154.292 81.121,166.845 107.431,172.768 135.152 C 173.711 139.565,175.453 150.578,175.241 150.790 C 175.198 150.833,173.077 149.980,170.527 148.895 C 163.741 146.007,159.970 144.529,153.960 142.401 C 137.846 136.694,117.593 132.525,99.427 131.177 C 93.867 130.765,70.579 130.903,65.790 131.378 C 43.027 133.632,24.756 138.084,4.673 146.271 C -0.106 148.219,-0.279 148.395,3.259 147.705 C 25.156 143.434,46.659 143.226,68.352 147.075 C 90.367 150.982,112.137 159.347,131.089 171.181 C 135.786 174.114,141.587 178.240,145.982 181.775 C 147.738 183.188,147.739 183.113,145.953 183.700 C 142.550 184.819,132.463 188.810,128.952 190.426 C 105.397 201.271,86.595 214.983,65.992 236.339 C 63.888 238.521,59.505 243.483,57.306 246.175 C 43.449 263.133,33.882 278.383,24.576 298.349 C 21.442 305.071,21.400 305.539,24.314 301.247 C 39.752 278.510,61.475 259.076,86.485 245.626 C 95.052 241.019,104.271 236.964,112.976 233.975 C 113.903 233.657,114.934 233.299,115.268 233.179 C 118.037 232.186,124.407 230.360,129.154 229.199 C 135.881 227.553,146.167 225.645,149.714 225.385 C 150.480 225.329,150.449 225.459,148.774 229.390 C 138.212 254.174,133.120 274.325,130.837 300.371 C 130.264 306.915,130.223 325.900,130.769 332.120 C 132.928 356.714,137.204 374.793,145.922 396.187 C 147.141 399.177,147.754 400.268,147.554 399.090 C 147.520 398.886,147.249 397.354,146.952 395.686 C 144.294 380.728,143.461 368.745,144.118 354.904 C 145.645 322.735,155.726 292.025,173.548 265.251 C 177.122 259.883,182.369 253.075,182.675 253.410 C 182.800 253.546,183.274 254.766,184.687 258.585 C 195.390 287.514,211.568 311.524,236.063 334.831 C 252.869 350.821,276.543 366.528,298.888 376.512 C 304.906 379.201,304.924 379.169,299.494 375.388 C 262.425 349.574,236.275 309.362,227.083 264.038 C 226.253 259.945,225.008 251.994,225.008 250.786 C 225.008 250.152,225.077 250.171,229.141 251.912 C 253.942 262.542,277.419 268.353,301.921 269.928 C 306.452 270.219,329.140 270.172,332.255 269.865 C 354.964 267.627,369.869 264.373,388.473 257.595 C 394.262 255.486,401.229 252.425,399.023 252.960 C 393.252 254.359,380.253 256.119,372.413 256.563 C 368.531 256.783,353.382 256.654,350.320 256.375 C 334.116 254.897,323.337 252.820,309.398 248.489 C 300.137 245.612,288.581 240.755,280.148 236.195 C 273.844 232.786,268.359 229.513,264.385 226.787 C 258.815 222.966,252.516 218.207,252.739 217.987 C 252.799 217.928,253.879 217.516,255.140 217.072 C 274.212 210.357,292.509 200.517,307.514 188.906 C 318.072 180.736,326.202 173.328,335.068 163.802 C 351.828 145.794,367.037 122.568,377.046 99.697 C 378.462 96.461,378.359 96.260,376.608 98.837 C 372.567 104.782,368.646 109.918,364.219 115.066 C 362.465 117.106,362.302 117.288,359.860 119.928 C 358.965 120.897,357.999 121.952,357.714 122.273 C 356.825 123.273,350.297 129.504,348.032 131.515 C 339.627 138.974,330.156 145.898,320.930 151.328 C 319.818 151.983,318.483 152.772,317.964 153.083 C 317.127 153.584,315.606 154.414,312.032 156.321 C 293.866 166.011,272.021 172.981,252.019 175.468 C 249.385 175.795,249.508 175.997,250.706 173.306 C 260.841 150.540,266.621 128.845,268.951 104.820 C 269.676 97.347,269.671 97.463,269.733 86.485 C 269.810 72.758,269.672 69.430,268.684 61.088 C 267.110 47.802,264.767 36.167,261.322 24.537 C 258.605 15.365,252.649 -0.267,252.646 1.767 M194.473 134.416 C 197.320 137.499,199.840 140.760,202.410 144.689 C 210.237 156.655,213.594 168.231,213.376 182.509 C 213.319 186.218,213.339 187.375,213.459 187.304 C 213.546 187.253,213.920 186.959,214.291 186.650 C 215.434 185.697,217.010 184.545,219.818 182.609 C 225.459 178.721,227.985 176.611,230.700 173.519 C 235.722 167.799,239.180 160.869,241.032 152.814 C 241.254 151.850,241.531 150.667,241.647 150.185 L 241.860 149.309 241.793 151.264 C 241.413 162.339,237.401 175.665,231.430 185.693 C 228.655 190.353,226.767 192.692,221.099 198.492 C 220.098 199.516,219.279 200.426,219.279 200.513 C 219.279 201.482,231.811 202.705,238.271 202.367 C 248.424 201.836,259.144 198.621,267.004 193.750 C 268.341 192.921,268.380 192.949,267.313 193.971 C 258.223 202.680,244.841 210.019,233.578 212.472 C 228.502 213.578,225.030 213.877,218.301 213.788 C 215.613 213.753,213.414 213.761,213.414 213.805 C 213.414 213.850,213.873 214.463,214.433 215.167 C 214.994 215.871,216.306 217.715,217.348 219.263 C 218.391 220.811,219.731 222.752,220.326 223.575 C 227.047 232.871,236.195 238.781,247.995 241.448 C 249.329 241.750,250.785 242.085,251.230 242.193 L 252.039 242.388 250.691 242.318 C 236.626 241.589,222.872 237.248,212.403 230.231 C 208.970 227.931,207.445 226.662,203.090 222.483 C 199.914 219.436,200.054 219.500,199.714 220.918 C 198.467 226.131,198.006 233.524,198.448 241.254 C 198.904 249.231,202.259 259.683,206.737 267.071 C 207.163 267.776,207.540 268.397,207.573 268.453 C 207.782 268.805,207.325 268.358,206.054 266.970 C 192.493 252.158,185.729 234.467,186.850 216.743 C 186.943 215.274,186.986 214.040,186.947 214.000 C 186.908 213.961,185.582 214.835,184.001 215.943 C 182.419 217.050,180.246 218.554,179.171 219.285 C 167.678 227.092,161.960 235.804,158.746 250.402 C 157.951 254.013,158.296 248.174,159.226 242.265 C 161.693 226.607,167.796 214.108,178.065 203.686 C 179.793 201.932,181.159 200.469,181.099 200.434 C 180.925 200.334,179.102 199.962,177.283 199.656 C 161.880 197.064,147.133 199.416,134.816 206.431 C 133.964 206.916,133.023 207.450,132.727 207.618 L 132.187 207.922 132.727 207.395 C 138.742 201.513,147.414 195.695,154.904 192.518 C 165.201 188.150,173.815 186.646,184.799 187.299 C 186.891 187.423,186.885 187.428,186.005 186.230 C 184.779 184.562,183.349 182.534,182.073 180.654 C 178.711 175.700,177.382 174.019,175.041 171.753 C 168.121 165.054,160.792 161.358,149.916 159.078 L 148.096 158.697 149.242 158.760 C 169.944 159.908,186.808 167.249,198.894 180.374 C 199.538 181.073,200.097 181.613,200.137 181.572 C 200.464 181.246,201.448 175.864,201.698 173.037 C 201.903 170.719,201.906 161.058,201.703 158.676 C 201.092 151.528,197.981 141.821,194.136 135.067 C 193.446 133.854,192.853 132.801,192.818 132.727 C 192.751 132.581,193.208 133.048,194.473 134.416 " stroke="none" fill="#000000" fill-rule="evenodd"></path></g></svg>
